X:805
T:A Yowe Cam to Wir Door Yarmin
S:Forgotten
Z:Nigel Gatherer
M:4/4
L:1/8
K:C
z | E2 DC CD E2 | GG E2 GG E2 | E2 DC CD E2 | cABG A3 :|
B | c2 dc B2 G2 | c2 Ac B2 G2 | cdef  g2 d2 | cABG A3 :|
